dist/assets/images/sixthPart/Group 1371.svg

<svg width="44" height="59" viewBox="0 0 44 59" fill="none" xmlns="http://www.w3.org/2000/svg">
<g id="Group 1371">
<path id="Vector" d="M11.7148 32.8895C11.7261 33.4712 5.62713 46.2915 2.77 52.2659C2.65571 52.5048 2.61594 52.7725 2.65586 53.0343C2.69578 53.2961 2.81354 53.5398 2.99383 53.7337C3.17413 53.9277 3.40861 54.0629 3.66678 54.1218C3.92495 54.1806 4.19487 54.1605 4.44142 54.0639L11.1393 51.4516C11.4049 51.3491 11.6964 51.3348 11.9707 51.4107C12.245 51.4866 12.4877 51.6487 12.6628 51.8731L17.6118 58.2608C17.7685 58.4639 17.981 58.617 18.2234 58.7012C18.4657 58.7855 18.7273 58.7974 18.9763 58.7353C19.2252 58.6733 19.4507 58.5401 19.6252 58.352C19.7997 58.1639 19.9155 57.929 19.9587 57.6761L23.724 35.8875L11.7148 32.8895Z" fill="url(#paint0_linear_295_3912)"/>
<path id="Vector_2" d="M32.2229 32.5029C32.2341 33.0835 38.8116 45.666 41.8932 51.5272C42.0161 51.7617 42.0657 52.0277 42.0355 52.2908C42.0053 52.5538 41.8968 52.8017 41.724 53.0022C41.5511 53.2028 41.322 53.3467 41.0663 53.4154C40.8106 53.4841 40.5402 53.4744 40.2901 53.3874L33.4994 51.0303C33.2302 50.9367 32.9379 50.9328 32.6662 51.019C32.3946 51.1053 32.1582 51.2771 31.9922 51.5089L27.2882 58.0782C27.1387 58.2865 26.9319 58.4467 26.6929 58.5394C26.4539 58.6321 26.1931 58.6532 25.9423 58.6002C25.6916 58.5472 25.4616 58.4224 25.2806 58.2409C25.0996 58.0594 24.9753 57.8291 24.9229 57.5782L20.3382 35.9457L32.2229 32.5029Z" fill="url(#paint1_linear_295_3912)"/>
<path id="Vector_3" d="M22.3157 40.8424C32.8947 40.8424 41.4707 32.2665 41.4707 21.6875C41.4707 11.1085 32.8947 2.53247 22.3157 2.53247C11.7367 2.53247 3.16074 11.1085 3.16074 21.6875C3.16074 32.2665 11.7367 40.8424 22.3157 40.8424Z" fill="url(#paint2_linear_295_3912)"/>
<path id="Vector_4" d="M33.2044 32.3868C39.1666 26.4245 39.1666 16.7578 33.2044 10.7956C27.2421 4.83337 17.5754 4.83337 11.6132 10.7956C5.65097 16.7578 5.65097 26.4245 11.6132 32.3868C17.5754 38.349 27.2421 38.349 33.2044 32.3868Z" fill="url(#paint3_linear_295_3912)"/>
</g>
<defs>
<linearGradient id="paint0_linear_295_3912" x1="14.6563" y1="46.0095" x2="26.3056" y2="14.2508" gradientUnits="userSpaceOnUse">
<stop stop-color="#FE7062"/>
<stop offset="1" stop-color="#FF928E"/>
</linearGradient>
<linearGradient id="paint1_linear_295_3912" x1="20781.6" y1="24820.8" x2="18761.5" y2="31380.9" gradientUnits="userSpaceOnUse">
<stop stop-color="#FE7062"/>
<stop offset="1" stop-color="#FF928E"/>
</linearGradient>
<linearGradient id="paint2_linear_295_3912" x1="1.85301" y1="44.0626" x2="49.6597" y2="-8.20563" gradientUnits="userSpaceOnUse">
<stop stop-color="#E1473D"/>
<stop offset="1" stop-color="#E9605A"/>
</linearGradient>
<linearGradient id="paint3_linear_295_3912" x1="20174" y1="38096.3" x2="31514.3" y2="25637.1" gradientUnits="userSpaceOnUse">
<stop stop-color="#FE7062"/>
<stop offset="1" stop-color="#FF928E"/>
</linearGradient>
</defs>
</svg>

<svg width="44" height="59" fill="none" xmlns="http://www.w3.org/2000/svg"><path d="M11.715 32.89c.011.581-6.088 13.401-8.945 19.376a1.32 1.32 0 001.671 1.798l6.698-2.612a1.327 1.327 0 011.524.421l4.949 6.388a1.32 1.32 0 002.347-.585l3.765-21.788-12.01-2.998z" fill="url(#paint0_linear_295_3912)"/><path d="M32.223 32.503c.011.58 6.589 13.163 9.67 19.024a1.32 1.32 0 01-1.603 1.86L33.5 51.03a1.32 1.32 0 00-1.508.479l-4.704 6.57a1.32 1.32 0 01-2.365-.5l-4.585-21.633 11.885-3.443z" fill="url(#paint1_linear_295_3912)"/><path d="M22.316 40.842c10.579 0 19.155-8.575 19.155-19.154 0-10.58-8.576-19.156-19.155-19.156-10.58 0-19.155 8.576-19.155 19.155 0 10.58 8.576 19.155 19.155 19.155z" fill="url(#paint2_linear_295_3912)"/><path d="M33.204 32.387c5.963-5.963 5.963-15.63 0-21.591-5.962-5.963-15.629-5.963-21.59 0-5.963 5.962-5.963 15.628 0 21.59 5.961 5.963 15.628 5.963 21.59 0z" fill="url(#paint3_linear_295_3912)"/><defs><linearGradient id="paint0_linear_295_3912" x1="14.656" y1="46.01" x2="26.306" y2="14.251" gradientUnits="userSpaceOnUse"><stop stop-color="#FE7062"/><stop offset="1" stop-color="#FF928E"/></linearGradient><linearGradient id="paint1_linear_295_3912" x1="20781.6" y1="24820.8" x2="18761.5" y2="31380.9" gradientUnits="userSpaceOnUse"><stop stop-color="#FE7062"/><stop offset="1" stop-color="#FF928E"/></linearGradient><linearGradient id="paint2_linear_295_3912" x1="1.853" y1="44.063" x2="49.66" y2="-8.206" gradientUnits="userSpaceOnUse"><stop stop-color="#E1473D"/><stop offset="1" stop-color="#E9605A"/></linearGradient><linearGradient id="paint3_linear_295_3912" x1="20174" y1="38096.3" x2="31514.3" y2="25637.1" gradientUnits="userSpaceOnUse"><stop stop-color="#FE7062"/><stop offset="1" stop-color="#FF928E"/></linearGradient></defs></svg>
